intelligram/images/nav-gear.svg

<?xml version="1.0" encoding="UTF-8" standalone="no"?>
<svg width="26px" height="25px" viewBox="0 0 26 25" version="1.1" xmlns="http://www.w3.org/2000/svg" xmlns:xlink="http://www.w3.org/1999/xlink" xmlns:sketch="http://www.bohemiancoding.com/sketch/ns">
    <!-- Generator: Sketch 3.3.2 (12043) - http://www.bohemiancoding.com/sketch -->
    <title>Imported Layers</title>
    <desc>Created with Sketch.</desc>
    <defs></defs>
    <g id="Page-1" stroke="none" stroke-width="1" fill="none" fill-rule="evenodd" sketch:type="MSPage">
        <g id="iPhone-6" sketch:type="MSArtboardGroup" transform="translate(-341.000000, -34.000000)" stroke="#979797" stroke-width="0.4" fill="#979797">
            <path d="M355.423423,34.8937976 L356.880111,38.3095981 C357.155925,38.4100832 357.424116,38.5154193 357.683992,38.6401594 L361.108108,37.232675 L363.141372,39.265246 L361.755371,42.7198545 C361.877339,42.9769577 361.977131,43.236833 362.074844,43.5071033 L365.507277,44.9423077 L365.507277,47.8168746 L362.072072,49.283957 C361.977131,49.5493763 361.879418,49.8120236 361.758143,50.0718988 L363.173943,53.5043313 L361.140679,55.5375953 L357.694387,54.1543659 C357.437283,54.278413 357.169785,54.3844421 356.893278,54.4870062 L355.474705,57.9083507 L352.600139,57.9083507 L351.146223,54.5057173 C350.862093,54.4059252 350.580735,54.3026681 350.309771,54.1730769 L346.918226,55.5694733 L344.884962,53.5369023 L346.252252,50.1259529 C346.116424,49.8501386 346.005544,49.5625433 345.900208,49.27079 L342.519058,47.8598406 L342.519058,44.9852737 L345.897436,43.5396743 C346,43.247228 346.111573,42.9630977 346.246708,42.6872834 L344.852391,39.297817 L346.885655,37.264553 L350.299376,38.6401594 C350.569647,38.5071033 350.848926,38.4017672 351.133056,38.3040541 L352.553708,34.8986486 L355.423423,34.8986486 L355.423423,34.8937976 Z M353.988912,50.7136175 C356.367983,50.7136175 358.298683,48.7836105 358.298683,46.3983021 C358.298683,44.0185378 356.367983,42.0836798 353.988912,42.0836798 C351.609148,42.0836798 349.679141,44.0164588 349.679141,46.3983021 C349.676369,48.7836105 351.609148,50.7136175 353.988912,50.7136175 L353.988912,50.7136175 Z M355.748441,34.4038462 L352.221067,34.4038462 L352.096327,34.7039155 L350.759529,37.9090437 C350.599446,37.9686417 350.440055,38.0310118 350.285516,38.1010049 L347.066528,36.8071726 L346.763687,36.6852044 L346.533611,36.9152807 L344.503119,38.9485447 L344.27027,39.1786209 L344.39501,39.4849272 L345.705475,42.6734234 C345.632017,42.8355856 345.566875,43.0039848 345.505198,43.1716909 L342.321552,44.5334373 L342.023562,44.6602564 L342.023562,48.1904019 L342.327096,48.3151421 L345.510049,49.6443174 C345.575191,49.8092516 345.640333,49.9769577 345.713098,50.1418919 L344.424809,53.3525641 L344.305613,53.6560984 L344.532918,53.8861746 L346.56341,55.9187457 L346.796258,56.1515939 L347.099099,56.0275468 L350.293832,54.7115385 C350.453222,54.7794525 350.610534,54.8390506 350.772696,54.8986486 L352.142758,58.1037769 L352.269577,58.4038462 L355.799723,58.4038462 L355.927235,58.0982328 L357.264033,54.8743936 C357.413028,54.8175676 357.562024,54.7551975 357.705475,54.6928274 L360.954262,55.9949757 L361.257103,56.1169439 L361.487179,55.8868676 L363.520444,53.8508316 L363.75052,53.6207554 L363.62578,53.3123701 L362.29106,50.0774428 C362.350658,49.9367637 362.407484,49.7953915 362.461538,49.6519404 L365.699238,48.268711 L366,48.1418919 L366,44.6089744 L365.696466,44.4814622 L362.461538,43.1308039 C362.407484,42.9873527 362.350658,42.8466736 362.288288,42.7032225 L363.593209,39.4440402 L363.715177,39.1432779 L361.22176,36.6505544 L360.916147,36.7746015 L357.691615,38.1037769 C357.546085,38.0393278 357.399861,37.9797297 357.248094,37.9201317 L355.87526,34.7011435 L355.748441,34.4038462 Z M353.988912,50.223666 C351.882883,50.223666 350.171864,48.5071033 350.171864,46.4010742 C350.171864,44.292273 351.885655,42.5784823 353.988912,42.5784823 C356.094941,42.5784823 357.808039,44.292273 357.808039,46.4010742 C357.808039,48.5071033 356.094941,50.223666 353.988912,50.223666 L353.988912,50.223666 Z" id="Imported-Layers" sketch:type="MSShapeGroup"></path>
        </g>
    </g>
</svg>

<?xml version="1.0" encoding="UTF-8" standalone="no"?>
<svg xmlns:sketch="http://www.bohemiancoding.com/sketch/ns" xmlns="http://www.w3.org/2000/svg" height="25px" width="26px" version="1.1" xmlns:xlink="http://www.w3.org/1999/xlink" viewBox="0 0 26 25"><!-- Generator: Sketch 3.3.2 (12043) - http://www.bohemiancoding.com/sketch -->
 <title>Imported Layers</title>
 <desc>Created with Sketch.</desc>
 <g id="Page-1" fill-rule="evenodd" sketch:type="MSPage" fill="none">
  <g id="iPhone-6" transform="translate(-341 -34)" sketch:type="MSArtboardGroup" stroke="#979797" stroke-width=".4" fill="#979797">
   <path id="Imported-Layers" sketch:type="MSShapeGroup" d="m355.42 34.894l1.46 3.416c0.28 0.1 0.54 0.205 0.8 0.33l3.43-1.407 2.03 2.032-1.38 3.455c0.12 0.257 0.22 0.517 0.31 0.787l3.44 1.435v2.875l-3.44 1.467c-0.09 0.265-0.19 0.528-0.31 0.788l1.41 3.432-2.03 2.034-3.45-1.384c-0.25 0.124-0.52 0.23-0.8 0.333l-1.42 3.421h-2.87l-1.45-3.402c-0.29-0.1-0.57-0.203-0.84-0.333l-3.39 1.396-2.04-2.032 1.37-3.411c-0.13-0.276-0.24-0.563-0.35-0.855l-3.38-1.411v-2.875l3.38-1.445c0.1-0.293 0.21-0.577 0.35-0.853l-1.4-3.389 2.04-2.033 3.41 1.375c0.27-0.133 0.55-0.238 0.83-0.336l1.42-3.405h2.87v-0.005zm-1.43 15.82c2.38 0 4.31-1.93 4.31-4.316 0-2.379-1.93-4.314-4.31-4.314s-4.31 1.932-4.31 4.314c0 2.386 1.93 4.316 4.31 4.316zm1.76-16.31h-3.53l-0.12 0.3-1.34 3.205c-0.16 0.06-0.32 0.122-0.47 0.192l-3.22-1.294-0.31-0.122-0.23 0.23-2.03 2.034-0.23 0.23 0.13 0.306 1.31 3.188c-0.08 0.163-0.14 0.331-0.2 0.499l-3.19 1.361-0.3 0.127v3.53l0.31 0.125 3.18 1.329c0.07 0.165 0.13 0.333 0.2 0.498l-1.29 3.211-0.11 0.303 0.22 0.23 2.03 2.033 0.24 0.233 0.3-0.124 3.19-1.316c0.16 0.067 0.32 0.127 0.48 0.187l1.37 3.205 0.13 0.3h3.53l0.13-0.306 1.33-3.224c0.15-0.056 0.3-0.119 0.45-0.181l3.24 1.302 0.31 0.122 0.23-0.23 2.03-2.036 0.23-0.23-0.12-0.309-1.34-3.235c0.06-0.14 0.12-0.282 0.17-0.425l3.24-1.383 0.3-0.127v-3.533l-0.3-0.128-3.24-1.35c-0.05-0.144-0.11-0.284-0.17-0.428l1.3-3.259 0.13-0.301-2.5-2.492-0.3 0.124-3.23 1.329c-0.14-0.065-0.29-0.124-0.44-0.184l-1.37-3.219-0.13-0.297zm-1.76 15.82c-2.11 0-3.82-1.717-3.82-3.823 0-2.109 1.72-3.823 3.82-3.823s3.82 1.714 3.82 3.823c0 2.106-1.72 3.823-3.82 3.823z"/>
  </g>
 </g>
</svg>
